X: 31052
T: Paddy Cronin's
R: slide
M: 12/8
K: Gmajor
ABc B2G A2B c2d|e2A cBA e2A cBA|
G2B dBG A2B c2d|e2A cBA B2A G3||
g2g f2g a2g fed|e2A cBA e2A cBA|
g2g f2g a2g fed|e2A cBA B2A G3||

